!!!OTL: Der Zimmergesell.
!!!OTL-incipit: WAR EINST EIN JUNG ZIMMER GESELL
!!!COM: Volksweise
!!!ARE: Europa, Mitteleuropa, Deutschland
!!!SCT: F0098
!!!TXL: @@DE
!!!YEM: Copyright 1995, estate of Helmut Schaffrath.
**kern	**text
*ICvox	*
*M6/8	*
*k[b-]	*
*F:	*
!LO:TX:a:t=Gehend.	!
{8c	1._War
=1	=1
4f	einſt
8f	ein
8aL	jung,
8gJ	.
8f	jung
=2	=2
8g	Ʒim-
8g	-mer-
8g	-ge-
8b-L	-ſell,
8aJ}	.
{8g	der
=3	=3
8d	baut'
8d	dem
8d	Markgra-
(>8f	.
8e)	-fen
8d	ein
=4	=4
4.a	Haus
4r}	.
{8cc	.
=5	=5
4cc/	lau-
8b-/	-ter
8dd	Sil-
8dd	-ber
8b-/	und
=6	=6
8b-/	E-
8b-/	-del-
8a	-ge-
4cc/}	-ſtein,
{8a	ſechs-
=7	=7
8a	-hun-
8a	-dert
8g	Schau-
8a	-lä-
8a	-den
8b-/	hin-
=8	=8
(4.cc	-aus,
4dd)}	.
{8cc	.
=9	=9
4cc/	lau-
8b-/	-ter
8dd	Sil-
8dd	-ber
8b-	und
=10	=10
8b-/	E-
8b-/	-del-
8a	-ge-
4cc/}	-ſtein,
{8a	ſechs-
=11	=11
8a	-hun-
8a	-dert
8g	Schaulä-
8b-/	.
8b-/	-den
8e	hin-
=12	=12
4.f	-aus.
4r}	.
==	==
!!!AGN: erzaehlendes Volks - Lied, Ballade
!!!ONB: ESAC (Essen Associative Code) Database: FINK
!!!AMT: compound duple
!!!AIN: vox
!!!EED: Helmut Schaffrath
!!!EEV: 1.0
!!Text: Volkslied
!!!RDF**kern: >= above
!!!source: Musikalischer Hausschatz der Deutschen. Eine Sammlung von über 1000 Liedern und Gesängen mit Singstimmen und Klavierbegleitung. Leipzig, Litterarisches Verlags-Haus.
!!!page: 60
!!!ENC: Anna Maria Matuszewska
!!!EEV: 2025/03/11
*-	*-
